X: 24840
T: Maggie's Afternoon Nap
R: barndance
M: 4/4
K: Gmajor
|:G2G2GAB2|E4-Efge|d3g edB2|FGA2-ADEF|
G4ABG2|E3f g3e|d3B AGA2|1 G4-GDEF:|2 G6Bc||
|:d4-dged|g4 Bdga|b4- bagb|a4- aaba|
g3a e2dB|dedB AGAB|GBdB AGA2|1 G2A2B2c2:|2 G2D2E2F2||

